Newaita/actions/24/align-horizontal-baseline.svg

<svg height="24" viewBox="0 0 24 24" width="24" xmlns="http://www.w3.org/2000/svg"><g fill="#424242"><path d="m4.960938 2.171875c.546874 0 .992187.445313.992187.992187v17.863282c0 .546875-.445313.992187-.992187.992187-.546876 0-.992188-.445312-.992188-.992187v-17.863282c0-.546874.445312-.992187.992188-.992187zm0 0"/><path d="m13.890625 4.15625c-3.296875 0-5.953125 2.65625-5.953125 5.953125v9.425781c0 .277344.222656.496094.496094.496094h.992187c.277344 0 .496094-.21875.496094-.496094v-9.425781c0-2.199219 1.769531-3.96875 3.96875-3.96875s3.96875 1.769531 3.96875 3.96875v9.425781c0 .277344.222656.496094.496094.496094h.992187c.277344 0 .496094-.21875.496094-.496094v-9.425781c0-3.296875-2.652344-5.953125-5.953125-5.953125zm0 0"/><path d="m9.425781 12.589844h9.425781c.277344 0 .496094.222656.496094.496094v.992187c0 .273437-.21875.496094-.496094.496094h-9.425781c-.273437 0-.496093-.222657-.496093-.496094v-.992187c0-.273438.222656-.496094.496093-.496094zm0 0"/></g></svg>

<?xml version="1.0" encoding="UTF-8"?>
<svg xmlns="http://www.w3.org/2000/svg" xmlns:xlink="http://www.w3.org/1999/xlink" width="24px" height="24px" viewBox="0 0 24 24" version="1.1">
<g id="surface1">
<path style=" stroke:none;fill-rule:nonzero;fill:rgb(25.882354%,25.882354%,25.882354%);fill-opacity:1;" d="M 4.960938 2.171875 C 5.507812 2.171875 5.953125 2.617188 5.953125 3.164062 L 5.953125 21.027344 C 5.953125 21.574219 5.507812 22.019531 4.960938 22.019531 C 4.414062 22.019531 3.96875 21.574219 3.96875 21.027344 L 3.96875 3.164062 C 3.96875 2.617188 4.414062 2.171875 4.960938 2.171875 Z M 4.960938 2.171875 "/>
<path style=" stroke:none;fill-rule:nonzero;fill:rgb(25.882354%,25.882354%,25.882354%);fill-opacity:1;" d="M 13.890625 4.15625 C 10.59375 4.15625 7.9375 6.8125 7.9375 10.109375 L 7.9375 19.535156 C 7.9375 19.8125 8.160156 20.03125 8.433594 20.03125 L 9.425781 20.03125 C 9.703125 20.03125 9.921875 19.8125 9.921875 19.535156 L 9.921875 10.109375 C 9.921875 7.910156 11.691406 6.140625 13.890625 6.140625 C 16.089844 6.140625 17.859375 7.910156 17.859375 10.109375 L 17.859375 19.535156 C 17.859375 19.8125 18.082031 20.03125 18.355469 20.03125 L 19.347656 20.03125 C 19.625 20.03125 19.84375 19.8125 19.84375 19.535156 L 19.84375 10.109375 C 19.84375 6.8125 17.191406 4.15625 13.890625 4.15625 Z M 13.890625 4.15625 "/>
<path style=" stroke:none;fill-rule:nonzero;fill:rgb(25.882354%,25.882354%,25.882354%);fill-opacity:1;" d="M 9.425781 12.589844 L 18.851562 12.589844 C 19.128906 12.589844 19.347656 12.8125 19.347656 13.085938 L 19.347656 14.078125 C 19.347656 14.351562 19.128906 14.574219 18.851562 14.574219 L 9.425781 14.574219 C 9.152344 14.574219 8.929688 14.351562 8.929688 14.078125 L 8.929688 13.085938 C 8.929688 12.8125 9.152344 12.589844 9.425781 12.589844 Z M 9.425781 12.589844 "/>
</g>
</svg>
